docs/media/cursor/cur5.svg

<?xml version="1.0" encoding="UTF-8"?>
<!DOCTYPE svg  PUBLIC '-//W3C//DTD SVG 1.1//EN'  'http://www.w3.org/Graphics/SVG/1.1/DTD/svg11.dtd'>
<svg version="1.1" viewBox="0 0 640 640" xmlns="http://www.w3.org/2000/svg" xmlns:xlink="http://www.w3.org/1999/xlink">
<defs>
<path id="a" d="m420 322.9c0 69.99-57.15 126.81-127.54 126.81s-127.53-56.82-127.53-126.81 57.14-126.81 127.53-126.81 127.54 56.82 127.54 126.81z"/>
<path id="c" d="m466.96 316.84c0 96.9-78.19 175.57-174.5 175.57s-174.5-78.67-174.5-175.57 78.19-175.58 174.5-175.58 174.5 78.68 174.5 175.58z"/>
<path id="b" d="m436.46 321.77c0.63 80.63-63.38 146.6-142.85 147.22-79.48 0.63-144.51-64.33-145.14-144.96-0.63-80.64 63.38-146.6 142.85-147.23 79.47-0.62 144.51 64.34 145.14 144.97z"/>
</defs>
<use fill="#6513e2" xlink:href="#a"/>
<use fill-opacity="0" stroke="#7a12e2" stroke-opacity=".44" stroke-width="9" xlink:href="#a"/>
<use fill-opacity="0" stroke="#f1f0e3" stroke-width="5" xlink:href="#c"/>
<use fill-opacity="0" stroke="#f1f0e3" stroke-width="3" xlink:href="#b"/>
</svg>

<?xml version="1.0" encoding="UTF-8" standalone="no"?>
<!DOCTYPE svg PUBLIC "-//W3C//DTD SVG 1.1//EN" "http://www.w3.org/Graphics/SVG/1.1/DTD/svg11.dtd">
<svg version="1.1" xmlns="http://www.w3.org/2000/svg" xmlns:xlink="http://www.w3.org/1999/xlink" preserveAspectRatio="xMidYMid meet" viewBox="0 0 640 640" width="640" height="640"><defs><path d="M420 322.9C420 392.89 362.85 449.71 292.46 449.71C222.07 449.71 164.93 392.89 164.93 322.9C164.93 252.91 222.07 196.09 292.46 196.09C362.85 196.09 420 252.91 420 322.9Z" id="bawzs91vd"></path><path d="M466.96 316.84C466.96 413.74 388.77 492.41 292.46 492.41C196.15 492.41 117.96 413.74 117.96 316.84C117.96 219.94 196.15 141.26 292.46 141.26C388.77 141.26 466.96 219.94 466.96 316.84Z" id="a6yyXmM7xp"></path><path d="M436.46 321.77C437.09 402.4 373.08 468.37 293.61 468.99C214.13 469.62 149.1 404.66 148.47 324.03C147.84 243.39 211.85 177.43 291.32 176.8C370.79 176.18 435.83 241.14 436.46 321.77Z" id="d855ybupXd"></path></defs><g><g><g><use xlink:href="#bawzs91vd" opacity="1" fill="#6513e2" fill-opacity="1"></use><g><use xlink:href="#bawzs91vd" opacity="1" fill-opacity="0" stroke="#7a12e2" stroke-width="9" stroke-opacity="0.44"></use></g></g><g><g><use xlink:href="#a6yyXmM7xp" opacity="1" fill-opacity="0" stroke="#f1f0e3" stroke-width="5" stroke-opacity="1"></use></g></g><g><g><use xlink:href="#d855ybupXd" opacity="1" fill-opacity="0" stroke="#f1f0e3" stroke-width="3" stroke-opacity="1"></use></g></g></g></g></svg>
